build/img/logo-gray.svg

<svg width="771" height="233" viewBox="0 0 771 233" fill="none" xmlns="http://www.w3.org/2000/svg">
<g opacity="0.4">
<path d="M228.39 0H192.453C191.139 0 190.262 0.43825 189.386 1.31475L1.81475 188.886C0.93825 189.762 0.5 190.639 0.5 191.953V227.89C0.5 230.081 2.253 232.272 4.8825 232.272H40.819C42.1337 232.272 43.0102 231.834 43.8867 230.958L231.458 43.3867C232.334 42.5102 232.772 41.6337 232.772 40.319V4.3825C232.772 1.753 231.019 0 228.39 0Z" fill="#F3F3F3"/>
<path d="M7.95024 93.3471L93.8471 7.45024C96.9149 4.3825 94.7237 0 91.2177 0H4.8825C2.253 0 0.5 1.753 0.5 4.3825V90.7177C0.5 94.2237 4.8825 96.4149 7.95024 93.3471Z" fill="#F3F3F3"/>
<path d="M225.322 138.922L139.425 224.819C136.357 227.887 138.548 232.269 142.054 232.269H228.389C230.581 232.269 232.772 230.516 232.772 227.887V141.551C232.772 138.045 228.389 135.854 225.322 138.922Z" fill="#F3F3F3"/>
<path d="M318.682 133.882L354.177 101.345V100.359H321.886V85.5693H376.114V101.345L340.62 133.882V135.114H377.347V149.657H318.682V133.882Z" fill="#F3F3F3"/>
<path d="M386.957 115.889H417.522V131.418H386.957V115.889Z" fill="#F3F3F3"/>
<path d="M431.089 85.5692H480.387V100.112H447.85V110.958H478.908V125.501H447.85V149.657H431.089V85.5692Z" fill="#F3F3F3"/>
<path d="M508.725 85.5693H528.691L554.819 145.96V149.657H537.565L533.374 139.305H504.042L499.851 149.657H483.09V145.96L508.725 85.5693ZM509.958 124.762H527.212L519.324 105.042H517.845L509.958 124.762Z" fill="#F3F3F3"/>
<path d="M618.425 99.991V104.181H601.17C599.445 100.238 594.022 97.7726 588.846 97.7726C582.93 97.7726 578.739 99.7445 578.739 102.949C578.739 106.4 584.655 107.879 590.325 109.111C601.91 111.576 618.918 115.027 618.918 129.077C618.918 142.141 606.593 150.029 590.818 150.029C577.014 150.029 565.429 143.62 560.499 132.282V128.091H577.754C579.725 132.035 584.902 134.5 591.064 134.5C596.98 134.5 601.91 133.021 601.91 129.324C601.91 126.119 596.487 124.64 590.078 123.408C578.739 121.189 561.731 117.739 561.731 103.195C561.731 90.8708 574.056 82.2435 588.846 82.2435C603.142 82.49 613.741 89.8848 618.425 99.991Z" fill="#F3F3F3"/>
<path d="M650.956 85.5693H670.922L697.05 145.96V149.657H679.796L675.605 139.305H646.519L642.329 149.657H625.567V145.96L650.956 85.5693ZM652.189 124.762H669.443L661.555 105.042H660.076L652.189 124.762Z" fill="#F3F3F3"/>
<path d="M706.414 85.5692H735.253C755.219 85.5692 770.502 97.4009 770.502 117.613C770.502 137.826 755.219 149.657 735.253 149.657H706.167V85.5692H706.414ZM723.175 100.359V135.361H735.5C745.852 135.361 753.74 128.952 753.74 117.86C753.74 106.521 746.099 100.605 735.5 100.605H723.175V100.359Z" fill="#F3F3F3"/>
</g>
</svg>

<svg width="771" height="233" fill="none" xmlns="http://www.w3.org/2000/svg">
    <g opacity=".4" fill="#F3F3F3">
        <path d="M228.39 0h-35.937c-1.314 0-2.191.438-3.067 1.315L1.815 188.886C.938 189.762.5 190.639.5 191.953v35.937c0 2.191 1.753 4.382 4.383 4.382h35.936c1.315 0 2.191-.438 3.068-1.314L231.458 43.387c.876-.877 1.314-1.753 1.314-3.068V4.382c0-2.629-1.753-4.382-4.382-4.382zM7.95 93.347 93.847 7.45c3.068-3.067.877-7.45-2.63-7.45H4.884C2.253 0 .5 1.753.5 4.383v86.335c0 3.506 4.383 5.697 7.45 2.63zM225.322 138.922l-85.897 85.897c-3.068 3.068-.877 7.45 2.629 7.45h86.335c2.192 0 4.383-1.753 4.383-4.382v-86.336c0-3.506-4.383-5.697-7.45-2.629zM318.682 133.882l35.495-32.537v-.986h-32.291v-14.79h54.228v15.776l-35.494 32.537v1.232h36.727v14.543h-58.665v-15.775zM386.957 115.889h30.565v15.529h-30.565v-15.529zM431.089 85.57h49.298v14.542H447.85v10.846h31.058v14.543H447.85v24.156h-16.761V85.569zM508.725 85.57h19.966l26.128 60.39v3.697h-17.254l-4.191-10.352h-29.332l-4.191 10.352H483.09v-3.697l25.635-60.39zm1.233 39.192h17.254l-7.888-19.72h-1.479l-7.887 19.72zM618.425 99.991v4.19H601.17c-1.725-3.943-7.148-6.408-12.324-6.408-5.916 0-10.107 1.972-10.107 5.176 0 3.451 5.916 4.93 11.586 6.162 11.585 2.465 28.593 5.916 28.593 19.966 0 13.064-12.325 20.952-28.1 20.952-13.804 0-25.389-6.409-30.319-17.747v-4.191h17.255c1.971 3.944 7.148 6.409 13.31 6.409 5.916 0 10.846-1.479 10.846-5.176 0-3.205-5.423-4.684-11.832-5.916-11.339-2.219-28.347-5.669-28.347-20.213 0-12.324 12.325-20.951 27.115-20.951 14.296.246 24.895 7.64 29.579 17.747zM650.956 85.57h19.966l26.128 60.39v3.697h-17.254l-4.191-10.352h-29.086l-4.19 10.352h-16.762v-3.697l25.389-60.39zm1.233 39.192h17.254l-7.888-19.72h-1.479l-7.887 19.72zM706.414 85.57h28.839c19.966 0 35.249 11.83 35.249 32.043s-15.283 32.044-35.249 32.044h-29.086V85.569h.247zm16.761 14.789v35.002H735.5c10.352 0 18.24-6.409 18.24-17.501 0-11.339-7.641-17.255-18.24-17.255h-12.325v-.246z"/>
    </g>
</svg>
